img/skully.svg

<svg width="270" height="325" viewBox="0 0 270 325" fill="none" xmlns="http://www.w3.org/2000/svg">
<path fill-rule="evenodd" clip-rule="evenodd" d="M36.5 250C36.7468 249.774 36.9831 249.536 37.2091 249.289C36.7899 250.108 36.5 250.5 36.5 250.5C36.5 250.5 70 229.5 59.5 196.5C50.1225 167.028 16.816 177.437 9.80232 179.999C9.68595 180 9.56969 180 9.45354 180C3.43556 164.966 0 147.585 0 129.5C-2.70978e-06 106.534 2.57468 85.5456 9.14875 69.7255C22.9132 29.5516 69.3426 3.05176e-05 124.5 3.05176e-05C126.309 3.05176e-05 128.108 0.0318128 129.898 0.0947107C131.589 0.031801 133.29 0 135 0C143.323 0 151.428 0.753133 159.217 2.17959C218.989 5.62975 270 58.2152 270 110C270 138.035 256.145 163.292 233.992 181.001L234 181C234 181 212.5 199 206 204C203.263 208.79 201.079 241.909 199.594 264.427L199.594 264.427C198.909 274.816 198.373 282.948 198 285C198 285.5 196 302.5 193 307C192.641 307.538 192.268 308.12 191.879 308.726C189.014 313.187 185.282 319 180 319C176.598 319 175.447 315.143 174.449 311.802C173.687 309.25 173.016 307 171.5 307C169.687 307 167.606 310.22 165.465 313.532C163.472 316.615 161.428 319.777 159.5 320.5C155.5 322 151.5 322.5 147 321C145.055 320.352 144.138 318.489 143.238 316.664C142.057 314.266 140.907 311.932 137.5 312.5C134.753 312.958 134.521 313.835 134.166 315.179C133.745 316.771 133.151 319.018 128 322C118.5 327.5 106.5 323.5 103 320C101.319 318.319 101.253 315.83 101.195 313.642C101.157 312.215 101.122 310.917 100.646 310.053C99.4062 309.887 98.1886 309.708 96.9931 309.518C96.4069 309.976 95.9391 310.682 95.4118 311.477C94.1826 313.332 92.6301 315.674 88.5 316.5C81 318 76 315 72.5 312.5C70.8899 311.35 69.3857 308.507 67.9386 305.772C66.2399 302.562 64.62 299.5 63 299.5C61.3963 299.5 60.3641 301.786 59.3688 303.991C58.5022 305.91 57.6636 307.767 56.5 308C54 308.5 51.5 308 48 304.5C44.5 301 42.5 285 42.5 285C42.5 285 35.5 256.5 36.5 250ZM115 174C131.5 160 156.5 161 157 168C157.218 171.049 152.978 173.813 148.287 176.871C142.207 180.834 135.371 185.291 136.5 191.5C137.811 198.709 147.926 199.475 154.743 199.992H154.743C158.328 200.264 161 200.466 161 201.5C161 202.486 159.27 203.689 156.948 205.304C152.208 208.599 145 213.61 145 222C145 228.913 151.729 230.015 157.575 230.972C162.299 231.745 166.447 232.424 166 236C165 244 151 247 144 247C143.688 247 143.373 247.001 143.055 247.002L143.046 247.002C136.231 247.024 128.027 247.05 118 237.5C107.5 227.5 98.5 188 115 174ZM85.917 219.922C84.0317 212.571 82.6692 207.259 80.7484 207.499C78.4367 207.788 78.0304 214.821 77.4806 224.337C77.079 231.287 76.601 239.561 75.2484 247.499C73.9253 255.264 71.0523 263.638 68.867 270.008L68.8669 270.008C66.7422 276.202 65.2676 280.5 66.5 280.5C67.5271 280.5 72.5 280.5 76 269C77.2487 264.897 78.1916 260.858 79.0083 257.359C80.4807 251.051 81.543 246.499 83.2484 246.499C84.4297 246.499 85.405 249.117 86.7764 252.799L86.7764 252.799C88.4273 257.23 90.6518 263.202 94.5 268C99.6334 274.401 110.166 278.714 113.748 274.499C116.066 271.772 112.729 268.147 107.836 262.831C103.937 258.595 99.0494 253.285 95.2484 246.501C90.6112 238.224 87.9578 227.879 85.917 219.922ZM20.6424 203.583C26.7075 201.507 41.3479 197.612 44.5 207.069C47.5857 216.326 35.1986 224.095 29.3748 227.163C27.8387 227.973 26.0084 227.181 25.4287 225.544L18.944 207.234C18.4139 205.737 19.14 204.098 20.6424 203.583Z" fill="black"/>
</svg>

<svg width="270" height="325" fill="none" xmlns="http://www.w3.org/2000/svg"><path fill-rule="evenodd" clip-rule="evenodd" d="M36.5 250c.247-.226.483-.464.71-.711-.42.819-.71 1.211-.71 1.211s33.5-21 23-54c-9.377-29.472-42.684-19.063-49.698-16.501l-.348.001C3.436 164.966 0 147.585 0 129.5c0-22.966 2.575-43.954 9.149-59.775C22.913 29.552 69.343 0 124.5 0c1.809 0 3.608.032 5.398.095A137.04 137.04 0 0 1 135 0c8.323 0 16.428.753 24.217 2.18C218.989 5.63 270 58.215 270 110c0 28.035-13.855 53.292-36.008 71.001L234 181s-21.5 18-28 23c-2.737 4.79-4.921 37.909-6.406 60.427-.685 10.389-1.221 18.521-1.594 20.573 0 .5-2 17.5-5 22-.359.538-.732 1.12-1.121 1.726C189.014 313.187 185.282 319 180 319c-3.402 0-4.553-3.857-5.551-7.198-.762-2.552-1.433-4.802-2.949-4.802-1.813 0-3.894 3.22-6.035 6.532-1.993 3.083-4.037 6.245-5.965 6.968-4 1.5-8 2-12.5.5-1.945-.648-2.862-2.511-3.762-4.336-1.181-2.398-2.331-4.732-5.738-4.164-2.747.458-2.979 1.335-3.334 2.679-.421 1.592-1.015 3.839-6.166 6.821-9.5 5.5-21.5 1.5-25-2-1.681-1.681-1.747-4.17-1.805-6.358-.038-1.427-.073-2.725-.549-3.589a150.83 150.83 0 0 1-3.653-.535c-.586.458-1.054 1.164-1.581 1.959-1.23 1.855-2.782 4.197-6.912 5.023-7.5 1.5-12.5-1.5-16-4-1.61-1.15-3.114-3.993-4.561-6.728-1.7-3.21-3.319-6.272-4.939-6.272-1.604 0-2.636 2.286-3.631 4.491-.867 1.919-1.705 3.776-2.869 4.009-2.5.5-5 0-8.5-3.5S42.5 285 42.5 285s-7-28.5-6-35Zm78.5-76c16.5-14 41.5-13 42-6 .218 3.049-4.022 5.813-8.713 8.871-6.08 3.963-12.916 8.42-11.787 14.629 1.311 7.209 11.426 7.975 18.243 8.492 3.585.272 6.257.474 6.257 1.508 0 .986-1.73 2.189-4.052 3.804C152.208 208.599 145 213.61 145 222c0 6.913 6.729 8.015 12.575 8.972 4.724.773 8.872 1.452 8.425 5.028-1 8-15 11-22 11l-.945.002h-.009c-6.815.022-15.019.048-25.046-9.502-10.5-10-19.5-49.5-3-63.5Zm-29.083 45.922c-1.885-7.351-3.248-12.663-5.169-12.423-2.311.289-2.718 7.322-3.267 16.838-.402 6.95-.88 15.224-2.233 23.162-1.323 7.765-4.196 16.139-6.381 22.509-2.125 6.194-3.6 10.492-2.367 10.492 1.027 0 6 0 9.5-11.5 1.249-4.103 2.192-8.142 3.008-11.641 1.473-6.308 2.535-10.86 4.24-10.86 1.182 0 2.157 2.618 3.528 6.3 1.651 4.431 3.876 10.403 7.724 15.201 5.133 6.401 15.666 10.714 19.248 6.499 2.318-2.727-1.019-6.352-5.912-11.668-3.899-4.236-8.787-9.546-12.588-16.33-4.637-8.277-7.29-18.622-9.331-26.579Zm-65.275-16.339c6.066-2.076 20.706-5.971 23.858 3.486 3.086 9.257-9.301 17.026-15.125 20.094-1.536.81-3.367.018-3.946-1.619l-6.485-18.31c-.53-1.497.196-3.136 1.698-3.651Z" fill="#000"/></svg>
